static/images/happy.svg

<svg height="600" viewBox="0 0 392 600" width="392" xmlns="http://www.w3.org/2000/svg"><g fill="none" fill-rule="evenodd"><g fill="#000"><path d="m196 600c-33.086023 0-60-26.916104-60-60h21.818182c0 21.053038 17.131284 38.183221 38.181818 38.183221 21.054391 0 38.181818-17.130183 38.181818-38.183221h21.818182c0 33.083896-26.913977 60-60 60"/><path d="m98 245.998075c0 27.063293-21.938632 49.001925-48.9980749 49.001925-27.0632931 0-49.0019251-21.938632-49.0019251-49.001925s21.938632-48.998075 49.0019251-48.998075c27.0594429 0 48.9980749 21.934782 48.9980749 48.998075"/><path d="m392 245.998075c0 27.063293-21.938632 49.001925-48.998075 49.001925-27.063293 0-49.001925-21.938632-49.001925-49.001925s21.938632-48.998075 49.001925-48.998075c27.059443 0 48.998075 21.934782 48.998075 48.998075"/></g><path d="m0 95h392v-95h-392z" fill="#00a170"/></g></svg>

<?xml version="1.0" encoding="UTF-8"?>
<svg width="392px" height="600px" viewBox="0 0 392 600" version="1.1" xmlns="http://www.w3.org/2000/svg" xmlns:xlink="http://www.w3.org/1999/xlink">
    <!-- Generator: Sketch 55.2 (78181) - https://sketchapp.com -->
    <title>Group 4792</title>
    <desc>Created with Sketch.</desc>
    <g id="Interaksjonsdesign-2.0-(current)" stroke="none" stroke-width="1" fill="none" fill-rule="evenodd">
        <g id="Suksess!" transform="translate(-1245.000000, -303.000000)">
            <g id="Group-4792">
                <g transform="translate(1245.000000, 303.000000)">
                    <path d="M196,600 C162.913977,600 136,573.083896 136,540 L157.818182,540 C157.818182,561.053038 174.949466,578.183221 196,578.183221 C217.054391,578.183221 234.181818,561.053038 234.181818,540 L256,540 C256,573.083896 229.086023,600 196,600" id="Fill-4786" fill="#000000"></path>
                    <path d="M98,245.998075 C98,273.061368 76.061368,295 49.0019251,295 C21.938632,295 0,273.061368 0,245.998075 C0,218.934782 21.938632,197 49.0019251,197 C76.061368,197 98,218.934782 98,245.998075" id="Fill-4788" fill="#000000"></path>
                    <path d="M392,245.998075 C392,273.061368 370.061368,295 343.001925,295 C315.938632,295 294,273.061368 294,245.998075 C294,218.934782 315.938632,197 343.001925,197 C370.061368,197 392,218.934782 392,245.998075" id="Fill-4790" fill="#000000"></path>
                    <polygon id="Fill-4793" fill="#00A170" points="0 95 392 95 392 0 0 0"></polygon>
                </g>
            </g>
        </g>
    </g>
</svg>
